assets/svg/arrow.svg

<svg fill="none" height="21" viewBox="0 0 11 21" width="11" xmlns="http://www.w3.org/2000/svg"><path d="m4.6509 3.47973-3.02563 3.04235c-.02512.02959-.05254.05719-.08205.08266-.31566.27232-.791351.23525-1.061484-.08243-.269273-.3166-.232709-.79251.063823-1.04701l4.323681-4.3545c.2941-.294447.76878-.294468 1.06281-.00004l4.30545 4.33753c.0294.02531.0568.05294.082.08264.2693.31659.2328.79244-.0818 1.06381-.31567.27232-.79136.23525-1.04482-.0643l-3.03815-3.05983v16.46399c0 .4167-.3362.7554-.7519.7554-.41569 0-.75193-.3387-.75193-.7554z" fill="#26666b"/></svg>

<svg width="11" height="21" viewBox="0 0 11 21" fill="none" xmlns="http://www.w3.org/2000/svg">
<path d="M4.6509 3.47973L1.62527 6.52208C1.60015 6.55167 1.57273 6.57927 1.54322 6.60474C1.22756 6.87706 0.751869 6.83999 0.481736 6.52231C0.212463 6.20571 0.249027 5.7298 0.545559 5.4753L4.86924 1.1208C5.16334 0.826353 5.63802 0.826332 5.93205 1.12076L10.2375 5.45829C10.2669 5.4836 10.2943 5.51123 10.3195 5.54093C10.5888 5.85752 10.5523 6.33337 10.2377 6.60474C9.92203 6.87706 9.44634 6.83999 9.19288 6.54044L6.15473 3.48061L6.15473 19.9446C6.15473 20.3613 5.81853 20.7 5.40283 20.7C4.98714 20.7 4.6509 20.3613 4.6509 19.9446L4.6509 3.47973Z" fill="#26666B"/>
</svg>
